X:53
T:Butterfish
R:reel
C:Paul S. Cranford
O:Cape Breton Island
S:http://www.cranfordpub.com
D:currently unrecorded
B:currently unpublished in book form
Z:psc, (re-formatted,updated 9/17/04)
N:
H:                                                        copyrights Cranford Publications, SOCAN
L:1/8
Q:333
M:C|
K:Dmix
Ac|dA A/A/A FADA|GcAF GEce|dA A/A/A FADA|GcGE D2 Ac|
dA A/A/A FADA|GcAF GAce|d=fec dcAF|GcGE D2:|
K:Ddor
|:Ac|d2 Ad fdaf|gcge fgec|d2 Ad fdaf|gcge d/d/d  Ac|
d2 Ad fdaf|gcge fgeg|ageg fgec|dfec d2:|
